report_00007_2020-12-11T15:55:29.892Z/largest-contentful-paint/comparison/sorted/6_vs_7.svg

<svg width="640" height="500" xmlns="http://www.w3.org/2000/svg" xmlns:xlink="http://www.w3.org/1999/xlink"><path fill="#fff" d="M0 0h640v500H0z"/><defs><path id="d" stroke-width=".222" stroke="currentColor" d="M-1-1h2v2h-2z"/><path id="b" stroke-width=".222" stroke="currentColor" d="M0-1.33l-1.33 2h2.66z"/><path id="f" stroke-width=".222" stroke="currentColor" d="M0 1.33L1.265.411.782-1.067l-1.564-.009-.483 1.487z"/><use xlink:href="#b" id="c" stroke="currentColor" transform="rotate(180)"/><use xlink:href="#d" id="e" stroke="currentColor" transform="rotate(45)"/><circle id="a" stroke-width=".222" stroke="currentColor" cx="0" cy="0" r="1"/></defs><g fill="none" color="#000" stroke="currentColor"><path stroke="#000" d="M62.2 344.9h9m543.8 0h-9"/><text transform="translate(53.9 348.8)" stroke="none" fill="#000" font-family="Arial" font-size="12" text-anchor="end"><tspan>6500</tspan></text></g><g fill="none" color="#000" stroke="currentColor"><path stroke="#000" d="M62.2 281.5h9m543.8 0h-9"/><text transform="translate(53.9 285.4)" stroke="none" fill="#000" font-family="Arial" font-size="12" text-anchor="end"><tspan>7000</tspan></text></g><g fill="none" color="#000" stroke="currentColor"><path stroke="#000" d="M62.2 218.1h9m543.8 0h-9"/><text transform="translate(53.9 222)" stroke="none" fill="#000" font-family="Arial" font-size="12" text-anchor="end"><tspan>7500</tspan></text></g><g fill="none" color="#000" stroke="currentColor"><path stroke="#000" d="M62.2 154.7h9m543.8 0h-9"/><text transform="translate(53.9 158.6)" stroke="none" fill="#000" font-family="Arial" font-size="12" text-anchor="end"><tspan>8000</tspan></text></g><g fill="none" color="#000" stroke="currentColor"><path stroke="#000" d="M62.2 91.2h9m543.8 0h-9"/><text transform="translate(53.9 95.1)" stroke="none" fill="#000" font-family="Arial" font-size="12" text-anchor="end"><tspan>8500</tspan></text></g><g fill="none" color="#000" stroke="currentColor"><path stroke="#000" d="M62.2 27.8h9m543.8 0h-9"/><text transform="translate(53.9 31.7)" stroke="none" fill="#000" font-family="Arial" font-size="12" text-anchor="end"><tspan>9000</tspan></text></g><g fill="none" color="#000" stroke="currentColor"><path stroke="#000" d="M62.2 392v-9m0-364.9v9"/><text transform="translate(62.2 413.9)" stroke="none" fill="#000" font-family="Arial" font-size="12" text-anchor="middle"><tspan>0</tspan></text></g><g fill="none" color="#000" stroke="currentColor"><path stroke="#000" d="M118 392v-9m0-364.9v9"/><text transform="translate(118 413.9)" stroke="none" fill="#000" font-family="Arial" font-size="12" text-anchor="middle"><tspan>10</tspan></text></g><g fill="none" color="#000" stroke="currentColor"><path stroke="#000" d="M173.9 392v-9m0-364.9v9"/><text transform="translate(173.9 413.9)" stroke="none" fill="#000" font-family="Arial" font-size="12" text-anchor="middle"><tspan>20</tspan></text></g><g fill="none" color="#000" stroke="currentColor"><path stroke="#000" d="M229.7 392v-9m0-364.9v9"/><text transform="translate(229.7 413.9)" stroke="none" fill="#000" font-family="Arial" font-size="12" text-anchor="middle"><tspan>30</tspan></text></g><g fill="none" color="#000" stroke="currentColor"><path stroke="#000" d="M285.6 392v-9m0-364.9v9"/><text transform="translate(285.6 413.9)" stroke="none" fill="#000" font-family="Arial" font-size="12" text-anchor="middle"><tspan>40</tspan></text></g><g fill="none" color="#000" stroke="currentColor"><path stroke="#000" d="M341.4 392v-9m0-364.9v9"/><text transform="translate(341.4 413.9)" stroke="none" fill="#000" font-family="Arial" font-size="12" text-anchor="middle"><tspan>50</tspan></text></g><g fill="none" color="#000" stroke="currentColor"><path stroke="#000" d="M397.2 392v-9m0-364.9v9"/><text transform="translate(397.2 413.9)" stroke="none" fill="#000" font-family="Arial" font-size="12" text-anchor="middle"><tspan>60</tspan></text></g><g fill="none" color="#000" stroke="currentColor"><path stroke="#000" d="M453.1 392v-9m0-364.9v9"/><text transform="translate(453.1 413.9)" stroke="none" fill="#000" font-family="Arial" font-size="12" text-anchor="middle"><tspan>70</tspan></text></g><g fill="none" color="#000" stroke="currentColor"><path stroke="#000" d="M508.9 392v-9m0-364.9v9"/><text transform="translate(508.9 413.9)" stroke="none" fill="#000" font-family="Arial" font-size="12" text-anchor="middle"><tspan>80</tspan></text></g><g fill="none" color="#000" stroke="currentColor"><path stroke="#000" d="M564.7 392v-9m0-364.9v9"/><text transform="translate(564.7 413.9)" stroke="none" fill="#000" font-family="Arial" font-size="12" text-anchor="middle"><tspan>90</tspan></text></g><path stroke="#000" d="M62.2 18.1V392H615V18.1H62.2z" fill="none" color="#000"/><text transform="translate(437.8 431.9)" stroke="none" fill="#000" font-family="Arial" font-size="12" text-anchor="end" color="#000"><tspan>pages+cached+noexternal+nofonts</tspan></text><path stroke="#9400D3" d="M446.1 428h42.2M62.2 384.8l5.6-1.1 5.6-8.2H79l5.5-.3h11.2l5.6-.1h5.6l5.6-.1h11.1l5.6-.1 5.6-.5 5.6-.6 5.6-6.7 5.5-.2 5.6-.1h11.2l5.6-.1 5.6-.3h11.1l5.6-.1 5.6-.1 5.6-.1 5.6-.1h11.1l5.6-.1 5.6-.1 5.6-.1h16.7l5.6-.1H280l5.6-.1h27.9l5.6-.1h16.7l5.6-.1h39.1l5.6-.1h16.7l5.6-.1h5.6l5.6-.1h5.5l5.6-.1H447.5l5.6-.1 5.6-.1 5.5-.6 5.6-92.7 5.6-1 5.6-.2h5.6l5.6-.1h11.1l5.6-.4 5.6-.1h5.6l5.6-.1 5.5-7.8 5.6-.4 5.6-.2 5.6-.1 5.6-.1h5.6l5.5-.1 5.6-.2 5.6-.1 5.6-.1h5.6l5.6-.1h5.5l5.6-.1 5.6-.3h5.6" fill="none" color="#000"/><text transform="translate(437.8 449.9)" stroke="none" fill="#000" font-family="Arial" font-size="12" text-anchor="end" color="#000"><tspan>pages+cached+noexternal+nosvg</tspan></text><path stroke="#009E73" d="M446.1 446h42.2M62.2 48.4h5.6l5.6-.5H79l5.5-.2 5.6-.2h5.6l5.6-.1 5.6-.1h5.6l5.5-.6 5.6-.1 5.6-.1 5.6-.3 5.6-.1h5.6l5.5-.1 5.6-.1h5.6l5.6-.1h5.6l5.6-.1 5.5-.1 5.6-.1 5.6-.1 5.6-.4 5.6-.2 5.6-.5 5.5-.1 5.6-5.7 5.6-.1 5.6-.2 5.6-.1 5.6-.1 5.6-.1h11.1l5.6-.1H280l5.6-.1h16.7l5.6-.1 5.6-.1 5.6-.1 5.5-.1h11.2l5.6-.1h5.6l5.6-.1h5.5l5.6-.1 5.6-.1h11.2l5.6-.2h5.5l5.6-.1 5.6-.1H414l5.6-.2 5.5-.1 5.6-.1h5.6l5.6-.1 5.6-.3 5.6-.2 5.6-.1 5.5-.9 5.6-5.4h5.6l5.6-.7 5.6-.1 5.6-.3h5.5l5.6-.2 5.6-.3h5.6l5.6-.1 5.6-.1 5.5-.1h5.6l5.6-.1 5.6-.1h11.2l5.5-.1 5.6-.2h5.6l5.6-.1 5.6-.1 5.6-.2 5.5-.1 5.6-.3 5.6-.3 5.6-.3" fill="none" color="#000"/><text transform="translate(437.8 467.9)" stroke="none" fill="#000" font-family="Arial" font-size="12" text-anchor="end" color="#000"><tspan>score p10=2500</tspan></text><path stroke="#56B4E9" d="M446.1 464h42.2" fill="none" color="#000"/><g><text transform="translate(437.8 485.9)" stroke="none" fill="#000" font-family="Arial" font-size="12" text-anchor="end" color="#000"><tspan>score median=4000</tspan></text><path stroke="#E69F00" d="M446.1 482h42.2" fill="none" color="#000"/></g><g fill="none" color="#000" stroke="currentColor"><path stroke="#000" d="M62.2 18.1V392H615V18.1H62.2z"/></g></svg>

<?xml version="1.0" encoding="utf-8"  standalone="no"?>
<svg 
 width="640" height="500"
 viewBox="0 0 640 500"
 xmlns="http://www.w3.org/2000/svg"
 xmlns:xlink="http://www.w3.org/1999/xlink"
>

<title>Gnuplot</title>
<desc>Produced by GNUPLOT 5.4 patchlevel 0 </desc>

<g id="gnuplot_canvas">

<rect x="0" y="0" width="640" height="500" fill="#ffffff"/>
<defs>

	<circle id='gpDot' r='0.5' stroke-width='0.5' stroke='currentColor'/>
	<path id='gpPt0' stroke-width='0.222' stroke='currentColor' d='M-1,0 h2 M0,-1 v2'/>
	<path id='gpPt1' stroke-width='0.222' stroke='currentColor' d='M-1,-1 L1,1 M1,-1 L-1,1'/>
	<path id='gpPt2' stroke-width='0.222' stroke='currentColor' d='M-1,0 L1,0 M0,-1 L0,1 M-1,-1 L1,1 M-1,1 L1,-1'/>
	<rect id='gpPt3' stroke-width='0.222' stroke='currentColor' x='-1' y='-1' width='2' height='2'/>
	<rect id='gpPt4' stroke-width='0.222' stroke='currentColor' fill='currentColor' x='-1' y='-1' width='2' height='2'/>
	<circle id='gpPt5' stroke-width='0.222' stroke='currentColor' cx='0' cy='0' r='1'/>
	<use xlink:href='#gpPt5' id='gpPt6' fill='currentColor' stroke='none'/>
	<path id='gpPt7' stroke-width='0.222' stroke='currentColor' d='M0,-1.33 L-1.33,0.67 L1.33,0.67 z'/>
	<use xlink:href='#gpPt7' id='gpPt8' fill='currentColor' stroke='none'/>
	<use xlink:href='#gpPt7' id='gpPt9' stroke='currentColor' transform='rotate(180)'/>
	<use xlink:href='#gpPt9' id='gpPt10' fill='currentColor' stroke='none'/>
	<use xlink:href='#gpPt3' id='gpPt11' stroke='currentColor' transform='rotate(45)'/>
	<use xlink:href='#gpPt11' id='gpPt12' fill='currentColor' stroke='none'/>
	<path id='gpPt13' stroke-width='0.222' stroke='currentColor' d='M0,1.330 L1.265,0.411 L0.782,-1.067 L-0.782,-1.076 L-1.265,0.411 z'/>
	<use xlink:href='#gpPt13' id='gpPt14' fill='currentColor' stroke='none'/>
	<filter id='textbox' filterUnits='objectBoundingBox' x='0' y='0' height='1' width='1'>
	  <feFlood flood-color='#FFFFFF' flood-opacity='1' result='bgnd'/>
	  <feComposite in='SourceGraphic' in2='bgnd' operator='atop'/>
	</filter>
	<filter id='greybox' filterUnits='objectBoundingBox' x='0' y='0' height='1' width='1'>
	  <feFlood flood-color='lightgrey' flood-opacity='1' result='grey'/>
	  <feComposite in='SourceGraphic' in2='grey' operator='atop'/>
	</filter>
</defs>
<g fill="none" color="#FFFFFF" stroke="black" stroke-width="1.00" stroke-linecap="butt" stroke-linejoin="miter">
</g>
<g fill="none" color="black" stroke="currentColor" stroke-width="1.00" stroke-linecap="butt" stroke-linejoin="miter">
	<path stroke='black'  d='M62.2,344.9 L71.2,344.9 M615.0,344.9 L606.0,344.9  '/>	<g transform="translate(53.9,348.8)" stroke="none" fill="black" font-family="Arial" font-size="12.00"  text-anchor="end">
		<text><tspan font-family="Arial" > 6500</tspan></text>
	</g>
</g>
<g fill="none" color="black" stroke="currentColor" stroke-width="1.00" stroke-linecap="butt" stroke-linejoin="miter">
	<path stroke='black'  d='M62.2,281.5 L71.2,281.5 M615.0,281.5 L606.0,281.5  '/>	<g transform="translate(53.9,285.4)" stroke="none" fill="black" font-family="Arial" font-size="12.00"  text-anchor="end">
		<text><tspan font-family="Arial" > 7000</tspan></text>
	</g>
</g>
<g fill="none" color="black" stroke="currentColor" stroke-width="1.00" stroke-linecap="butt" stroke-linejoin="miter">
	<path stroke='black'  d='M62.2,218.1 L71.2,218.1 M615.0,218.1 L606.0,218.1  '/>	<g transform="translate(53.9,222.0)" stroke="none" fill="black" font-family="Arial" font-size="12.00"  text-anchor="end">
		<text><tspan font-family="Arial" > 7500</tspan></text>
	</g>
</g>
<g fill="none" color="black" stroke="currentColor" stroke-width="1.00" stroke-linecap="butt" stroke-linejoin="miter">
	<path stroke='black'  d='M62.2,154.7 L71.2,154.7 M615.0,154.7 L606.0,154.7  '/>	<g transform="translate(53.9,158.6)" stroke="none" fill="black" font-family="Arial" font-size="12.00"  text-anchor="end">
		<text><tspan font-family="Arial" > 8000</tspan></text>
	</g>
</g>
<g fill="none" color="black" stroke="currentColor" stroke-width="1.00" stroke-linecap="butt" stroke-linejoin="miter">
	<path stroke='black'  d='M62.2,91.2 L71.2,91.2 M615.0,91.2 L606.0,91.2  '/>	<g transform="translate(53.9,95.1)" stroke="none" fill="black" font-family="Arial" font-size="12.00"  text-anchor="end">
		<text><tspan font-family="Arial" > 8500</tspan></text>
	</g>
</g>
<g fill="none" color="black" stroke="currentColor" stroke-width="1.00" stroke-linecap="butt" stroke-linejoin="miter">
	<path stroke='black'  d='M62.2,27.8 L71.2,27.8 M615.0,27.8 L606.0,27.8  '/>	<g transform="translate(53.9,31.7)" stroke="none" fill="black" font-family="Arial" font-size="12.00"  text-anchor="end">
		<text><tspan font-family="Arial" > 9000</tspan></text>
	</g>
</g>
<g fill="none" color="black" stroke="currentColor" stroke-width="1.00" stroke-linecap="butt" stroke-linejoin="miter">
	<path stroke='black'  d='M62.2,392.0 L62.2,383.0 M62.2,18.1 L62.2,27.1  '/>	<g transform="translate(62.2,413.9)" stroke="none" fill="black" font-family="Arial" font-size="12.00"  text-anchor="middle">
		<text><tspan font-family="Arial" > 0</tspan></text>
	</g>
</g>
<g fill="none" color="black" stroke="currentColor" stroke-width="1.00" stroke-linecap="butt" stroke-linejoin="miter">
	<path stroke='black'  d='M118.0,392.0 L118.0,383.0 M118.0,18.1 L118.0,27.1  '/>	<g transform="translate(118.0,413.9)" stroke="none" fill="black" font-family="Arial" font-size="12.00"  text-anchor="middle">
		<text><tspan font-family="Arial" > 10</tspan></text>
	</g>
</g>
<g fill="none" color="black" stroke="currentColor" stroke-width="1.00" stroke-linecap="butt" stroke-linejoin="miter">
	<path stroke='black'  d='M173.9,392.0 L173.9,383.0 M173.9,18.1 L173.9,27.1  '/>	<g transform="translate(173.9,413.9)" stroke="none" fill="black" font-family="Arial" font-size="12.00"  text-anchor="middle">
		<text><tspan font-family="Arial" > 20</tspan></text>
	</g>
</g>
<g fill="none" color="black" stroke="currentColor" stroke-width="1.00" stroke-linecap="butt" stroke-linejoin="miter">
	<path stroke='black'  d='M229.7,392.0 L229.7,383.0 M229.7,18.1 L229.7,27.1  '/>	<g transform="translate(229.7,413.9)" stroke="none" fill="black" font-family="Arial" font-size="12.00"  text-anchor="middle">
		<text><tspan font-family="Arial" > 30</tspan></text>
	</g>
</g>
<g fill="none" color="black" stroke="currentColor" stroke-width="1.00" stroke-linecap="butt" stroke-linejoin="miter">
	<path stroke='black'  d='M285.6,392.0 L285.6,383.0 M285.6,18.1 L285.6,27.1  '/>	<g transform="translate(285.6,413.9)" stroke="none" fill="black" font-family="Arial" font-size="12.00"  text-anchor="middle">
		<text><tspan font-family="Arial" > 40</tspan></text>
	</g>
</g>
<g fill="none" color="black" stroke="currentColor" stroke-width="1.00" stroke-linecap="butt" stroke-linejoin="miter">
	<path stroke='black'  d='M341.4,392.0 L341.4,383.0 M341.4,18.1 L341.4,27.1  '/>	<g transform="translate(341.4,413.9)" stroke="none" fill="black" font-family="Arial" font-size="12.00"  text-anchor="middle">
		<text><tspan font-family="Arial" > 50</tspan></text>
	</g>
</g>
<g fill="none" color="black" stroke="currentColor" stroke-width="1.00" stroke-linecap="butt" stroke-linejoin="miter">
	<path stroke='black'  d='M397.2,392.0 L397.2,383.0 M397.2,18.1 L397.2,27.1  '/>	<g transform="translate(397.2,413.9)" stroke="none" fill="black" font-family="Arial" font-size="12.00"  text-anchor="middle">
		<text><tspan font-family="Arial" > 60</tspan></text>
	</g>
</g>
<g fill="none" color="black" stroke="currentColor" stroke-width="1.00" stroke-linecap="butt" stroke-linejoin="miter">
	<path stroke='black'  d='M453.1,392.0 L453.1,383.0 M453.1,18.1 L453.1,27.1  '/>	<g transform="translate(453.1,413.9)" stroke="none" fill="black" font-family="Arial" font-size="12.00"  text-anchor="middle">
		<text><tspan font-family="Arial" > 70</tspan></text>
	</g>
</g>
<g fill="none" color="black" stroke="currentColor" stroke-width="1.00" stroke-linecap="butt" stroke-linejoin="miter">
	<path stroke='black'  d='M508.9,392.0 L508.9,383.0 M508.9,18.1 L508.9,27.1  '/>	<g transform="translate(508.9,413.9)" stroke="none" fill="black" font-family="Arial" font-size="12.00"  text-anchor="middle">
		<text><tspan font-family="Arial" > 80</tspan></text>
	</g>
</g>
<g fill="none" color="black" stroke="currentColor" stroke-width="1.00" stroke-linecap="butt" stroke-linejoin="miter">
	<path stroke='black'  d='M564.7,392.0 L564.7,383.0 M564.7,18.1 L564.7,27.1  '/>	<g transform="translate(564.7,413.9)" stroke="none" fill="black" font-family="Arial" font-size="12.00"  text-anchor="middle">
		<text><tspan font-family="Arial" > 90</tspan></text>
	</g>
</g>
<g fill="none" color="black" stroke="currentColor" stroke-width="1.00" stroke-linecap="butt" stroke-linejoin="miter">
</g>
<g fill="none" color="black" stroke="currentColor" stroke-width="1.00" stroke-linecap="butt" stroke-linejoin="miter">
	<path stroke='black'  d='M62.2,18.1 L62.2,392.0 L615.0,392.0 L615.0,18.1 L62.2,18.1 Z  '/></g>
<g fill="none" color="black" stroke="currentColor" stroke-width="1.00" stroke-linecap="butt" stroke-linejoin="miter">
</g>
	<g id="gnuplot_plot_1" ><title>pages+cached+noexternal+nofonts</title>
<g fill="none" color="black" stroke="currentColor" stroke-width="1.00" stroke-linecap="butt" stroke-linejoin="miter">
	<g transform="translate(437.8,431.9)" stroke="none" fill="black" font-family="Arial" font-size="12.00"  text-anchor="end">
		<text><tspan font-family="Arial" >pages+cached+noexternal+nofonts</tspan></text>
	</g>
</g>
<g fill="none" color="black" stroke="currentColor" stroke-width="1.00" stroke-linecap="butt" stroke-linejoin="miter">
	<path stroke='rgb(148,   0, 211)'  d='M446.1,428.0 L488.3,428.0 M62.2,384.8 L67.8,383.7 L73.4,375.5 L79.0,375.5 L84.5,375.2 L90.1,375.2
		L95.7,375.2 L101.3,375.1 L106.9,375.1 L112.5,375.0 L118.0,375.0 L123.6,375.0 L129.2,374.9 L134.8,374.4
		L140.4,373.8 L146.0,367.1 L151.5,366.9 L157.1,366.8 L162.7,366.8 L168.3,366.8 L173.9,366.7 L179.5,366.4
		L185.0,366.4 L190.6,366.4 L196.2,366.3 L201.8,366.2 L207.4,366.1 L213.0,366.0 L218.5,366.0 L224.1,366.0
		L229.7,365.9 L235.3,365.8 L240.9,365.7 L246.5,365.7 L252.1,365.7 L257.6,365.7 L263.2,365.6 L268.8,365.6
		L274.4,365.6 L280.0,365.6 L285.6,365.5 L291.1,365.5 L296.7,365.5 L302.3,365.5 L307.9,365.5 L313.5,365.5
		L319.1,365.4 L324.6,365.4 L330.2,365.4 L335.8,365.4 L341.4,365.3 L347.0,365.3 L352.6,365.3 L358.1,365.3
		L363.7,365.3 L369.3,365.3 L374.9,365.3 L380.5,365.3 L386.1,365.2 L391.6,365.2 L397.2,365.2 L402.8,365.2
		L408.4,365.1 L414.0,365.1 L419.6,365.0 L425.1,365.0 L430.7,364.9 L436.3,364.9 L441.9,364.9 L447.5,364.9
		L453.1,364.8 L458.7,364.7 L464.2,364.1 L469.8,271.4 L475.4,270.4 L481.0,270.2 L486.6,270.2 L492.2,270.1
		L497.7,270.1 L503.3,270.1 L508.9,269.7 L514.5,269.6 L520.1,269.6 L525.7,269.5 L531.2,261.7 L536.8,261.3
		L542.4,261.1 L548.0,261.0 L553.6,260.9 L559.2,260.9 L564.7,260.8 L570.3,260.6 L575.9,260.5 L581.5,260.4
		L587.1,260.4 L592.7,260.3 L598.2,260.3 L603.8,260.2 L609.4,259.9 L615.0,259.9  '/></g>
	</g>
	<g id="gnuplot_plot_2" ><title>pages+cached+noexternal+nosvg</title>
<g fill="none" color="black" stroke="currentColor" stroke-width="1.00" stroke-linecap="butt" stroke-linejoin="miter">
	<g transform="translate(437.8,449.9)" stroke="none" fill="black" font-family="Arial" font-size="12.00"  text-anchor="end">
		<text><tspan font-family="Arial" >pages+cached+noexternal+nosvg</tspan></text>
	</g>
</g>
<g fill="none" color="black" stroke="currentColor" stroke-width="1.00" stroke-linecap="butt" stroke-linejoin="miter">
	<path stroke='rgb(  0, 158, 115)'  d='M446.1,446.0 L488.3,446.0 M62.2,48.4 L67.8,48.4 L73.4,47.9 L79.0,47.9 L84.5,47.7 L90.1,47.5
		L95.7,47.5 L101.3,47.4 L106.9,47.3 L112.5,47.3 L118.0,46.7 L123.6,46.6 L129.2,46.5 L134.8,46.2
		L140.4,46.1 L146.0,46.1 L151.5,46.0 L157.1,45.9 L162.7,45.9 L168.3,45.8 L173.9,45.8 L179.5,45.7
		L185.0,45.6 L190.6,45.5 L196.2,45.4 L201.8,45.0 L207.4,44.8 L213.0,44.3 L218.5,44.2 L224.1,38.5
		L229.7,38.4 L235.3,38.2 L240.9,38.1 L246.5,38.0 L252.1,37.9 L257.6,37.9 L263.2,37.9 L268.8,37.8
		L274.4,37.8 L280.0,37.8 L285.6,37.7 L291.1,37.7 L296.7,37.7 L302.3,37.7 L307.9,37.6 L313.5,37.5
		L319.1,37.4 L324.6,37.3 L330.2,37.3 L335.8,37.3 L341.4,37.2 L347.0,37.2 L352.6,37.1 L358.1,37.1
		L363.7,37.0 L369.3,36.9 L374.9,36.9 L380.5,36.9 L386.1,36.7 L391.6,36.7 L397.2,36.6 L402.8,36.5
		L408.4,36.5 L414.0,36.5 L419.6,36.3 L425.1,36.2 L430.7,36.1 L436.3,36.1 L441.9,36.0 L447.5,35.7
		L453.1,35.5 L458.7,35.4 L464.2,34.5 L469.8,29.1 L475.4,29.1 L481.0,28.4 L486.6,28.3 L492.2,28.0
		L497.7,28.0 L503.3,27.8 L508.9,27.5 L514.5,27.5 L520.1,27.4 L525.7,27.3 L531.2,27.2 L536.8,27.2
		L542.4,27.1 L548.0,27.0 L553.6,27.0 L559.2,27.0 L564.7,26.9 L570.3,26.7 L575.9,26.7 L581.5,26.6
		L587.1,26.5 L592.7,26.3 L598.2,26.2 L603.8,25.9 L609.4,25.6 L615.0,25.3  '/></g>
	</g>
	<g id="gnuplot_plot_3" ><title>score p10=2500</title>
<g fill="none" color="black" stroke="currentColor" stroke-width="1.00" stroke-linecap="butt" stroke-linejoin="miter">
	<g transform="translate(437.8,467.9)" stroke="none" fill="black" font-family="Arial" font-size="12.00"  text-anchor="end">
		<text><tspan font-family="Arial" >score p10=2500</tspan></text>
	</g>
</g>
<g fill="none" color="black" stroke="currentColor" stroke-width="1.00" stroke-linecap="butt" stroke-linejoin="miter">
	<path stroke='rgb( 86, 180, 233)'  d='M446.1,464.0 L488.3,464.0  '/></g>
	</g>
	<g id="gnuplot_plot_4" ><title>score median=4000</title>
<g fill="none" color="black" stroke="currentColor" stroke-width="1.00" stroke-linecap="butt" stroke-linejoin="miter">
	<g transform="translate(437.8,485.9)" stroke="none" fill="black" font-family="Arial" font-size="12.00"  text-anchor="end">
		<text><tspan font-family="Arial" >score median=4000</tspan></text>
	</g>
</g>
<g fill="none" color="black" stroke="currentColor" stroke-width="1.00" stroke-linecap="butt" stroke-linejoin="miter">
	<path stroke='rgb(230, 159,   0)'  d='M446.1,482.0 L488.3,482.0  '/></g>
	</g>
<g fill="none" color="#FFFFFF" stroke="rgb(230, 159,   0)" stroke-width="2.00" stroke-linecap="butt" stroke-linejoin="miter">
</g>
<g fill="none" color="black" stroke="currentColor" stroke-width="2.00" stroke-linecap="butt" stroke-linejoin="miter">
</g>
<g fill="none" color="black" stroke="black" stroke-width="1.00" stroke-linecap="butt" stroke-linejoin="miter">
</g>
<g fill="none" color="black" stroke="currentColor" stroke-width="1.00" stroke-linecap="butt" stroke-linejoin="miter">
	<path stroke='black'  d='M62.2,18.1 L62.2,392.0 L615.0,392.0 L615.0,18.1 L62.2,18.1 Z  '/></g>
<g fill="none" color="black" stroke="currentColor" stroke-width="1.00" stroke-linecap="butt" stroke-linejoin="miter">
</g>
</g>
</svg>
